X:10
T:Schottisch GC 2+ chords (align)
M:2/4
L:1/16
K:Gmaj%%MIDI gchordon
gb |: "G"d6gb | d6gb | "D7"d'2ff f2f2 | "G"gfgb d'2gb | d6gb | d6gb | \
"D7"d'2ff f2f2 | "G"g2g2 g2gb :|
"G"d2dd d2d2 | d6db | "C"e2ee e2e2 | e6ed | "D7"c'2ff f2f2 | \
f6ed | "G"b2gg g2g2 | g2g2 g2gb | d2dd d2d2 |
d6 db | "C"e2ee e2e2 | e6ed | \
"D7"c'2ff f2f2 | f6ef | "G"g4 "D7"d2ef |
"G"g2g2 "G7"g2e=f |: [K:Cmaj] [L:1/4] "C"g>e | g>"_ ="e | "Dm""_d"d"_a"a | \
"_d"d>c | "G7""_h"B"_f"f | "_h"B>"_ a ="A | "C"Ge |
c>e | g>e | g>e | \
"Dm"da | d>c | "G7"Bf | ed | "C"c/2c'/4c'/4 c'/2c'/2 |1 c' z/2e/4f/4 :|2 c'z |] 

